X:1
T:Title
%%score ( 1 2 ) 3
L:1/8
Q:1/4=110
M:4/4
K:G
V:1 treble nm="Choir Aahs, Staff"
V:2 treble 
V:3 bass nm="Choir Aahs, Staff-1"
V:1
 [DB]2 [EG]2 [FA]2 [Dd]2 | [EG]2 AG [DF]2 D2 | [CE]2 [DF]2 [DG]2 [B,G]2 | [EA]2 [Dd]2 [DB]4 | %4
w: By~Meiningen~Gesangbuch,~1693 * * *||||
 [DB]2 [EG]2 [FA]2 [Dd]2 | [EG]2 AG [DF]2 D2 | [CE]2 [DF]2 [DG]2 [B,G]2 | [EA]2 [Dd]2 [DB]4 | %8
w: ||||
 [DB]2 [EG]2 [DA]2 [Fd]2 | [Ed]2 [E^c]2 [Fd]4 | [Ge]2 [Gd]2 c-[Fc] [GB]2 | [GA]2 [FA]2 [DG]4 |] %12
w: ||||
V:2
 x8 | z2 ^C2 z4 | x8 | x8 | x8 | z2 ^C2 z4 | x8 | x8 | x8 | x8 | z4 .E2 z2 | x8 |] %12
V:3
 G,2 [E,B,]2 [D,D]2 [F,A,]2 | [E,B,]2 [A,,A,]2 [D,A,]2 [D,F,]2 | %2
 [A,,A,]2 [D,A,]2 [B,,G,]2 [E,G,]2 | [C,G,]2 [D,F,]2 [G,,G,]4 | G,2 [E,B,]2 [D,D]2 [F,A,]2 | %5
 [E,B,]2 [A,,A,]2 [D,A,]2 [D,F,]2 | [A,,A,]2 [D,A,]2 [B,,G,]2 [E,G,]2 | [C,G,]2 [D,F,]2 [G,,G,]4 | %8
 G,2 [E,B,]2 [F,A,]2 [D,A,]2 | [G,,B,]2 [A,,A,]2 [D,A,]4 | [C,C]2 [G,B,]2 [A,C]2 [G,D]2 | %11
 [C,E]2 [D,D]2 [G,,B,]4 |] %12

